svg/country-4x3/tv.svg

<?xml version="1.0" encoding="UTF-8" standalone="no"?>
<!-- Created with Sodipodi ("http://www.sodipodi.com/") -->

<svg
   xmlns:dc="http://purl.org/dc/elements/1.1/"
   xmlns:cc="http://creativecommons.org/ns#"
   xmlns:rdf="http://www.w3.org/1999/02/22-rdf-syntax-ns#"
   xmlns:svg="http://www.w3.org/2000/svg"
   xmlns="http://www.w3.org/2000/svg"
   xmlns:sodipodi="http://sodipodi.sourceforge.net/DTD/sodipodi-0.dtd"
   xmlns:inkscape="http://www.inkscape.org/namespaces/inkscape"
   id="svg2498"
   sodipodi:version="0.33pre"
   width="640"
   height="480"
   sodipodi:docname="tv.svg"
   version="1.1"
   inkscape:version="0.48.1 r9760">
  <sodipodi:namedview
     id="base"
     showgrid="true"
     snaptogrid="false"
     inkscape:zoom="1.0958333"
     inkscape:cx="355.13308"
     inkscape:cy="240"
     inkscape:window-width="1280"
     inkscape:window-height="746"
     inkscape:window-x="0"
     inkscape:window-y="24"
     inkscape:window-maximized="1"
     inkscape:current-layer="svg2498" />
  <metadata
     id="metadata4144">
    <rdf:RDF>
      <cc:Work
         rdf:about="">
        <dc:format>image/svg+xml</dc:format>
        <dc:type
           rdf:resource="http://purl.org/dc/dcmitype/StillImage" />
      </cc:Work>
    </rdf:RDF>
  </metadata>
  <defs
     id="defs2500">
    <clipPath
       id="clipPath5808"
       clipPathUnits="userSpaceOnUse">
      <rect
         y="0"
         width="512"
         style="fill:#000000;fill-opacity:0.67000002;stroke:none"
         x="0"
         height="512"
         id="rect5810" />
    </clipPath>
    <clipPath
       id="clipPath4030"
       clipPathUnits="userSpaceOnUse">
      <rect
         y="0"
         width="640"
         style="fill:#000000;fill-opacity:0.67000002;stroke:none"
         x="0"
         height="480"
         id="rect4032" />
    </clipPath>
    <clipPath
       clipPathUnits="userSpaceOnUse"
       id="clipPath5023">
      <rect
         id="rect5025"
         height="480"
         x="0"
         style="fill:#000000;fill-opacity:0.67000002;stroke:none"
         width="640"
         y="0" />
    </clipPath>
  </defs>
  <g
     id="flag"
     clip-path="url(#clipPath5023)"
     inkscape:label="#g4924">
    <g
       transform="matrix(0.64507937,0,0,0.92058695,0,23.330628)"
       id="g5547"
       style="fill:#009fca;fill-opacity:1">
      <rect
         style="font-size:12px;fill:#009fca;fill-opacity:1;fill-rule:evenodd;stroke-width:1pt"
         id="rect5549"
         width="486.15814"
         height="515.87305"
         x="505.96783"
         y="-19.809778" />
      <rect
         style="font-size:12px;fill:#009fca;fill-opacity:1;fill-rule:evenodd;stroke-width:1pt"
         id="rect5551"
         width="523.49158"
         height="521.40601"
         x="-7.1123663e-17"
         y="-25.343208"
         ry="0" />
    </g>
    <g
       style="stroke:none"
       id="g3907"
       transform="scale(1.6542665,1.6542665)">
      <rect
         style="font-size:12px;fill:#ffffff;fill-opacity:1;fill-rule:evenodd;stroke:none"
         id="rect1310"
         width="239.28893"
         height="118.8428"
         x="0.0099677667"
         y="5.5042631e-07" />
      <path
         inkscape:connector-curvature="0"
         style="fill:#cc0000;stroke:none"
         d="M 0.0099681,3.3451673e-4 0,8.9198482 57.102743,38.260881 78.588323,38.883404 0.0099681,3.3451673e-4 z"
         id="path549"
         sodipodi:nodetypes="ccccc" />
      <path
         inkscape:connector-curvature="0"
         style="fill:#000066;stroke:none"
         d="M 24.458831,3.3451673e-4 93.687241,36.16123 l 0,-36.16089548327 -69.22841,0 z"
         id="path551"
         sodipodi:nodetypes="cccc" />
      <path
         inkscape:connector-curvature="0"
         style="fill:#cc0000;stroke:none"
         d="m 102.92306,3.3451673e-4 0,46.16322848327 -102.9130919,0 0,26.379066 102.9130919,0 0,46.163291 31.66554,0 0,-46.163291 102.91273,0 0,-26.379066 -102.91273,0 0,-46.16322848327 -31.66554,0 z"
         id="path552" />
      <path
         inkscape:connector-curvature="0"
         style="fill:#000066;stroke:none"
         d="m 143.82394,3.3451673e-4 0,34.07288448327 L 211.54849,0.26427308 143.82394,3.3451673e-4 z"
         id="path554"
         sodipodi:nodetypes="cccc" />
      <path
         inkscape:connector-curvature="0"
         style="fill:#cc0000;stroke:none"
         d="M 145.96224,37.788144 165.01061,37.634573 239.0059,0.26427308 219.37027,0.58416747 145.96224,37.788144 z"
         id="path555"
         sodipodi:nodetypes="ccccc" />
      <path
         inkscape:connector-curvature="0"
         style="fill:#000066;stroke:none"
         d="m 0.0099681,80.236511 0,25.279829 L 47.508239,80.500447 0.0099681,80.236511 z"
         id="path700"
         sodipodi:nodetypes="cccc" />
      <path
         inkscape:connector-curvature="0"
         style="fill:#cc0000;stroke:none"
         d="m 182.91462,81.280278 -19.80042,-0.153763 74.63766,37.161705 -0.49099,-8.50197 -54.34625,-28.505972 z M 18.557601,118.91477 88.541702,82.17076 70.160595,82.292429 0.00996839,118.85969"
         id="path701"
         sodipodi:nodetypes="ccccccccc" />
    </g>
    <path
       sodipodi:nodetypes="cccccccccccccccccccccc"
       id="path556"
       d="m 394.54901,17.271082 -93.50151,46.368261 92.25744,0.345255 0,69.093462 -78.57485,0 77.84819,42.18092 1.14267,21.45774 -41.58106,-0.49684 -113.80234,-55.86905 0,56.36589 -82.93945,0 0,-56.36589 -106.753194,56.21454 -48.21378438,0.15137 0,196.37015 785.74801838,0 0,-392.74093399 L 395.37945,5.5277045e-4 M 0.43112162,22.164943 0.01648989,62.948359 82.737825,63.984598 0.43112162,22.164943 z"
       style="fill:#000066;stroke:none"
       inkscape:connector-curvature="0" />
    <g
       style="fill:#009fca;fill-opacity:1;stroke:none"
       id="g3304"
       transform="matrix(0.79241261,0,0,0.79977093,0.00598671,2.9104586e-4)">
      <rect
         y="-1.5260001e-05"
         x="496.06299"
         height="496.06299"
         width="496.06299"
         id="rect3302"
         style="font-size:12px;fill:#009fca;fill-opacity:1;fill-rule:evenodd;stroke:none" />
      <rect
         y="244.60844"
         x="-2.3032131"
         height="251.45454"
         width="525.7948"
         id="rect3303"
         style="font-size:12px;fill:#009fca;fill-opacity:1;fill-rule:evenodd;stroke:none"
         ry="0"
         rx="0" />
    </g>
    <g
       id="g5553"
       transform="matrix(1.5188802,0,0,1.5188802,-136.21683,80.582433)">
      <polygon
         points="555.613,324.281 626.445,324.23 569.104,365.812 591.041,433.161 591.041,433.161 533.774,391.476 476.501,433.151 498.449,365.806 441.115,324.214 511.946,324.278 533.785,256.897 "
         style="font-size:12px;fill:#fff40d;fill-opacity:1;fill-rule:evenodd;stroke-width:1pt"
         id="polygon136"
         transform="matrix(0.25628031,0,0,0.24118593,337.92572,-50.489077)" />
      <polygon
         points="555.613,324.281 626.445,324.23 569.104,365.812 591.041,433.161 591.041,433.161 533.774,391.476 476.501,433.151 498.449,365.806 441.115,324.214 511.946,324.278 533.785,256.897 "
         style="font-size:12px;fill:#fff40d;fill-opacity:1;fill-rule:evenodd;stroke-width:1pt"
         id="polygon3314"
         transform="matrix(0.25628031,0,0,0.24118593,292.36813,79.065408)" />
      <polygon
         points="555.613,324.281 626.445,324.23 569.104,365.812 591.041,433.161 591.041,433.161 533.774,391.476 476.501,433.151 498.449,365.806 441.115,324.214 511.946,324.278 533.785,256.897 "
         style="font-size:12px;fill:#fff40d;fill-opacity:1;fill-rule:evenodd;stroke-width:1pt"
         id="polygon3315"
         transform="matrix(0.25628031,0,0,0.24118593,337.92577,49.73768)" />
      <polygon
         points="555.613,324.281 626.445,324.23 569.104,365.812 591.041,433.161 591.041,433.161 533.774,391.476 476.501,433.151 498.449,365.806 441.115,324.214 511.946,324.278 533.785,256.897 "
         style="font-size:12px;fill:#fff40d;fill-opacity:1;fill-rule:evenodd;stroke-width:1pt"
         id="polygon3317"
         transform="matrix(0.25628031,0,0,0.24118593,142.02793,143.70032)" />
      <polygon
         points="555.613,324.281 626.445,324.23 569.104,365.812 591.041,433.161 591.041,433.161 533.774,391.476 476.501,433.151 498.449,365.806 441.115,324.214 511.946,324.278 533.785,256.897 "
         style="font-size:12px;fill:#fff40d;fill-opacity:1;fill-rule:evenodd;stroke-width:1pt"
         id="polygon3319"
         transform="matrix(-0.25628031,0,0,-0.24118593,468.01372,249.76879)" />
      <polygon
         points="555.613,324.281 626.445,324.23 569.104,365.812 591.041,433.161 591.041,433.161 533.774,391.476 476.501,433.151 498.449,365.806 441.115,324.214 511.946,324.278 533.785,256.897 "
         style="font-size:12px;fill:#fff40d;fill-opacity:1;fill-rule:evenodd;stroke-width:1pt"
         id="polygon3320"
         transform="matrix(-0.25628031,0,0,-0.24118593,521.54391,175.73766)" />
      <polygon
         points="555.613,324.281 626.445,324.23 569.104,365.812 591.041,433.161 591.041,433.161 533.774,391.476 476.501,433.151 498.449,365.806 441.115,324.214 511.946,324.278 533.785,256.897 "
         style="font-size:12px;fill:#fff40d;fill-opacity:1;fill-rule:evenodd;stroke-width:1pt"
         id="polygon3321"
         transform="matrix(-0.25628031,0,0,-0.24118593,566.53213,160.36195)" />
      <polygon
         points="555.613,324.281 626.445,324.23 569.104,365.812 591.041,433.161 591.041,433.161 533.774,391.476 476.501,433.151 498.449,365.806 441.115,324.214 511.946,324.278 533.785,256.897 "
         style="font-size:12px;fill:#fff40d;fill-opacity:1;fill-rule:evenodd;stroke-width:1pt"
         id="polygon3322"
         transform="matrix(-0.25628031,0,0,-0.24118593,521.54391,288.49275)" />
      <polygon
         points="555.613,324.281 626.445,324.23 569.104,365.812 591.041,433.161 591.041,433.161 533.774,391.476 476.501,433.151 498.449,365.806 441.115,324.214 511.946,324.278 533.785,256.897 "
         style="font-size:12px;fill:#fff40d;fill-opacity:1;fill-rule:evenodd;stroke-width:1pt"
         id="polygon3323"
         transform="matrix(-0.25628031,0,0,-0.24118593,468.01372,301.59053)" />
    </g>
  </g>
</svg>

<?xml version="1.0" encoding="UTF-8" standalone="no"?>
<!-- Created with Sodipodi ("http://www.sodipodi.com/") -->
<svg id="svg2498" xmlns:rdf="http://www.w3.org/1999/02/22-rdf-syntax-ns#" xmlns="http://www.w3.org/2000/svg" height="480" width="640" version="1.1" xmlns:cc="http://creativecommons.org/ns#" xmlns:dc="http://purl.org/dc/elements/1.1/">
 <metadata id="metadata4144">
  <rdf:RDF>
   <cc:Work rdf:about="">
    <dc:format>image/svg+xml</dc:format>
    <dc:type rdf:resource="http://purl.org/dc/dcmitype/StillImage"/>
   </cc:Work>
  </rdf:RDF>
 </metadata>
 <defs id="defs2500">
  <clipPath id="clipPath5023" clipPathUnits="userSpaceOnUse">
   <rect id="rect5025" fill-opacity="0.67" height="480" width="640" y="0" x="0"/>
  </clipPath>
 </defs>
 <g id="flag" clip-path="url(#clipPath5023)">
  <g id="g5547" fill-rule="evenodd" transform="matrix(.64508 0 0 .92059 0 23.331)" stroke-width="1pt" fill="#009fca">
   <rect id="rect5549" height="515.87" width="486.16" y="-19.81" x="505.97"/>
   <rect id="rect5551" ry="0" height="521.41" width="523.49" y="-25.343" x="-7.1124e-17"/>
  </g>
  <g id="g3907" transform="scale(1.6543)">
   <rect id="rect1310" fill-rule="evenodd" height="118.84" width="239.29" y="5.5043e-7" x=".0099678" fill="#fff"/>
   <path id="path549" d="m0.0099681 0.00033452-0.0099681 8.9195 57.103 29.341 21.485 0.622-78.578-38.883z" fill="#c00"/>
   <path id="path551" d="m24.459 0.00033452 69.228 36.161v-36.161h-69.228z" fill="#006"/>
   <path id="path552" fill="#c00" d="m102.92 0.00033452v46.163h-102.91v26.379h102.91v46.163h31.666v-46.163h102.91v-26.379h-102.91v-46.163h-31.666z"/>
   <path id="path554" d="m143.82 0.00033452v34.073l67.73-33.809-67.73-0.26367z" fill="#006"/>
   <path id="path555" d="m145.96 37.788 19.05-0.153 74-37.371-19.64 0.32017-73.41 37.204z" fill="#c00"/>
   <path id="path700" d="m0.0099681 80.237v25.28l47.498-25.02-47.498-0.263z" fill="#006"/>
   <path id="path701" d="m182.91 81.28-19.8-0.15376 74.638 37.162-0.49099-8.502-54.346-28.506zm-164.35 37.63 69.984-36.739-18.381 0.121-70.151 36.568" fill="#c00"/>
  </g>
  <path id="path556" d="m394.55 17.271-93.502 46.368 92.257 0.34526v69.093h-78.575l77.848 42.181 1.1427 21.458-41.581-0.49684-113.8-55.869v56.366h-82.939v-56.366l-106.75 56.215-48.214 0.15137v196.37h785.75v-392.74l-390.82-0.33945m-394.95 22.164-0.41463 40.783 82.722 1.037-82.307-41.82z" fill="#006"/>
  <g id="g3304" fill-rule="evenodd" transform="matrix(.79241 0 0 .79977 .0059867 .00029105)" fill="#009fca">
   <rect id="rect3302" height="496.06" width="496.06" y="-.000015260" x="496.06"/>
   <rect id="rect3303" rx="0" ry="0" height="251.45" width="525.79" y="244.61" x="-2.3032"/>
  </g>
  <g id="g5553" fill-rule="evenodd" transform="matrix(1.5189 0 0 1.5189 -136.22 80.582)" stroke-width="1pt" fill="#fff40d">
   <polygon id="polygon136" transform="matrix(.25628 0 0 .24119 337.93 -50.489)" points="555.61 324.28 626.44 324.23 569.1 365.81 591.04 433.16 591.04 433.16 533.77 391.48 476.5 433.15 498.45 365.81 441.12 324.21 511.95 324.28 533.78 256.9"/>
   <polygon id="polygon3314" transform="matrix(.25628 0 0 .24119 292.37 79.065)" points="555.61 324.28 626.44 324.23 569.1 365.81 591.04 433.16 591.04 433.16 533.77 391.48 476.5 433.15 498.45 365.81 441.12 324.21 511.95 324.28 533.78 256.9"/>
   <polygon id="polygon3315" transform="matrix(.25628 0 0 .24119 337.93 49.738)" points="555.61 324.28 626.44 324.23 569.1 365.81 591.04 433.16 591.04 433.16 533.77 391.48 476.5 433.15 498.45 365.81 441.12 324.21 511.95 324.28 533.78 256.9"/>
   <polygon id="polygon3317" transform="matrix(.25628 0 0 .24119 142.03 143.7)" points="555.61 324.28 626.44 324.23 569.1 365.81 591.04 433.16 591.04 433.16 533.77 391.48 476.5 433.15 498.45 365.81 441.12 324.21 511.95 324.28 533.78 256.9"/>
   <polygon id="polygon3319" transform="matrix(-.25628 0 0 -.24119 468.01 249.77)" points="555.61 324.28 626.44 324.23 569.1 365.81 591.04 433.16 591.04 433.16 533.77 391.48 476.5 433.15 498.45 365.81 441.12 324.21 511.95 324.28 533.78 256.9"/>
   <polygon id="polygon3320" transform="matrix(-.25628 0 0 -.24119 521.54 175.74)" points="555.61 324.28 626.44 324.23 569.1 365.81 591.04 433.16 591.04 433.16 533.77 391.48 476.5 433.15 498.45 365.81 441.12 324.21 511.95 324.28 533.78 256.9"/>
   <polygon id="polygon3321" transform="matrix(-.25628 0 0 -.24119 566.53 160.36)" points="555.61 324.28 626.44 324.23 569.1 365.81 591.04 433.16 591.04 433.16 533.77 391.48 476.5 433.15 498.45 365.81 441.12 324.21 511.95 324.28 533.78 256.9"/>
   <polygon id="polygon3322" transform="matrix(-.25628 0 0 -.24119 521.54 288.49)" points="555.61 324.28 626.44 324.23 569.1 365.81 591.04 433.16 591.04 433.16 533.77 391.48 476.5 433.15 498.45 365.81 441.12 324.21 511.95 324.28 533.78 256.9"/>
   <polygon id="polygon3323" transform="matrix(-.25628 0 0 -.24119 468.01 301.59)" points="555.61 324.28 626.44 324.23 569.1 365.81 591.04 433.16 591.04 433.16 533.77 391.48 476.5 433.15 498.45 365.81 441.12 324.21 511.95 324.28 533.78 256.9"/>
  </g>
 </g>
</svg>
